!!!OTL: Woge
!!!ARE: Asia, China,ÿHubei, Mianyang
!! I, 464
!!!SCT: C1462
!!!YEM: Copyright 1995, estate of Helmut Schaffrath.
**kern
*ICvox
*Ivox
*M2/4
*k[b-e-]
*B-:
{8dd
16dd
16gg
4ff
=1
8b-
16b-
16cc
4b-
=2
4ff
8ff
8cc
=3
8.dd
16cc
4b-}
=4
{8dd
16dd
16ff
8b-
16b-
16cc
=5
16b-
16cc
16dd
16cc
4b-
=6
8.b-
16g
8f
8g
=7
8b-
8g
4b-}
=8
{8b-
16g
16b-
8.dd
16ff
=9
16g
8dd
16b-
8b-
8g
=10
4b-
8cc
8b-
=11
8g
8g
4f}
=12
{8g
16f
16g
8f
8g
=13
8b-
8g
4f
=14
8.g
16g
8f
8g
=15
8b-
8g
4b-}
==
!!!AGN: Haozi, Sipingqiang, Dahang
!!!ONB: ESAC (Essen Associative Code) Database: HUANG
!!!AMT: simple duple
!!!AIN: vox
!!!EED: Helmut Schaffrath
!!!EEV: 1.0
*-
